X: 1
T:N°82
N:page 101
S:Manuscrit Wandembrile (1778), Archives de l'Etat à Namur
Z:ABC transcription Olivier VIENNE troubadourwallon@gmail.com
K:Gmaj
M:2/4
L:1/16
B4 A4|GFGA G2B2|G2B2A2G2|D6 D2|G2GB A2A2|Bcde f2e2|d2d2A2c2|d4 D4:|
|:B4 FEFG|A4 A2BA|G2FG A2G2|FED^C D2D2|G2GG F2FA|Gedc B2A2|GABA G2D2|G4 [G,G]4:|]





